X:4991
T:Pamela Rose McLeod
O:england
M:4/4
L:1/8
Q:128
K:F
|:c2A3/2B/ c3/2B/A/F3/2|d2B3/2c/ d3/2f/e/g3/2|c2A3/2B/ c3/2B/A/F3/2|D/G3
/2G3/2A/ B2A3/2B/|
W: F Bb C F Dm Bb C
c2A3/2B/ c3/2B/A/F3/2|d2B3/2c/ d3/2f/e/g3/2|c/a3/2g3/2e/ f3/2d/c/A3/2|D/
G3/2G3/2A/ B2A3/2G/|
W: F Bb C Am7 Dm7 Gm7 C
F2f3/2g/ a3/2g/f/c3/2|dfcA A/G3/2G3/2A/|F2f3/2g/ a3/2g/fg/a/|b3/2a/g3/2f
/ d3/2c/d/f3/2|
W: F Bb C F Dm Gm C
F2f3/2g/ a3/2g/f3/2e/|d3/2c/df g2f3/2g/|a3/2g/f3/2d/ c3/2d/f3/2A/|D/G3/2
G3/2A/ B2AB:|D/G3/2G3/2E/ F2
W: F Bb C Dm Am Gm7 C7 Gm7_C7_F


